X: 8838
T: Cuilcagh Mountains, The
R: reel
M: 4/4
K: Gdorian
||G2 dG FDCD|FGAc defg|agfa gfdc|A3G FGAF|
G2 dG FDCD|FGAc defg|agfa gfdc|AGFA G2G2||
g2 ag fdcd|f3g fdcd|fgag fdcA|G2AF DG G2|
g2 ag fdcA|cd fa g2fg|af ff gfag|fffg fdcA||

